images/134230.svg

<?xml version="1.0" encoding="UTF-8"?>
<svg xmlns="http://www.w3.org/2000/svg" xmlns:xlink="http://www.w3.org/1999/xlink" width="300pt" height="300pt" viewBox="0 0 300 300" version="1.1">
<defs>
<g>
<symbol overflow="visible" id="glyph0-0">
<path style="stroke:none;" d="M 0.59375 2.125 L 0.59375 -8.46875 L 6.59375 -8.46875 L 6.59375 2.125 Z M 1.265625 1.453125 L 5.9375 1.453125 L 5.9375 -7.78125 L 1.265625 -7.78125 Z M 1.265625 1.453125 "/>
</symbol>
<symbol overflow="visible" id="glyph0-1">
<path style="stroke:none;" d="M 4.734375 -7.953125 C 3.867188 -7.953125 3.179688 -7.628906 2.671875 -6.984375 C 2.171875 -6.347656 1.921875 -5.472656 1.921875 -4.359375 C 1.921875 -3.265625 2.171875 -2.394531 2.671875 -1.75 C 3.179688 -1.113281 3.867188 -0.796875 4.734375 -0.796875 C 5.585938 -0.796875 6.265625 -1.113281 6.765625 -1.75 C 7.273438 -2.394531 7.53125 -3.265625 7.53125 -4.359375 C 7.53125 -5.472656 7.273438 -6.347656 6.765625 -6.984375 C 6.265625 -7.628906 5.585938 -7.953125 4.734375 -7.953125 Z M 4.734375 -8.90625 C 5.953125 -8.90625 6.925781 -8.492188 7.65625 -7.671875 C 8.394531 -6.847656 8.765625 -5.742188 8.765625 -4.359375 C 8.765625 -2.984375 8.394531 -1.882812 7.65625 -1.0625 C 6.925781 -0.238281 5.953125 0.171875 4.734375 0.171875 C 3.503906 0.171875 2.519531 -0.238281 1.78125 -1.0625 C 1.039062 -1.882812 0.671875 -2.984375 0.671875 -4.359375 C 0.671875 -5.742188 1.039062 -6.847656 1.78125 -7.671875 C 2.519531 -8.492188 3.503906 -8.90625 4.734375 -8.90625 Z M 4.734375 -8.90625 "/>
</symbol>
<symbol overflow="visible" id="glyph0-2">
<path style="stroke:none;" d="M 1.171875 -8.75 L 2.765625 -8.75 L 6.65625 -1.4375 L 6.65625 -8.75 L 7.796875 -8.75 L 7.796875 0 L 6.203125 0 L 2.328125 -7.3125 L 2.328125 0 L 1.171875 0 Z M 1.171875 -8.75 "/>
</symbol>
<symbol overflow="visible" id="glyph0-3">
<path style="stroke:none;" d="M 1.171875 -8.75 L 2.359375 -8.75 L 2.359375 -5.15625 L 6.65625 -5.15625 L 6.65625 -8.75 L 7.84375 -8.75 L 7.84375 0 L 6.65625 0 L 6.65625 -4.171875 L 2.359375 -4.171875 L 2.359375 0 L 1.171875 0 Z M 1.171875 -8.75 "/>
</symbol>
</g>
</defs>
<g id="surface30337">
<rect x="0" y="0" width="300" height="300" style="fill:rgb(100%,100%,100%);fill-opacity:1;stroke:none;"/>
<path style="fill:none;stroke-width:1.2;stroke-linecap:butt;stroke-linejoin:miter;stroke:rgb(0%,0%,0%);stroke-opacity:1;stroke-miterlimit:10;" d="M 35.25 151.863281 L 61.445312 139.148438 "/>
<path style="fill:none;stroke-width:1.2;stroke-linecap:butt;stroke-linejoin:miter;stroke:rgb(0%,0%,0%);stroke-opacity:1;stroke-miterlimit:10;" d="M 64.863281 139.394531 L 65.90625 124.875 "/>
<path style="fill:none;stroke-width:1.2;stroke-linecap:butt;stroke-linejoin:miter;stroke:rgb(100%,0%,0%);stroke-opacity:1;stroke-miterlimit:10;" d="M 65.90625 124.875 L 66.953125 110.351562 "/>
<path style="fill:none;stroke-width:1.2;stroke-linecap:butt;stroke-linejoin:miter;stroke:rgb(0%,0%,0%);stroke-opacity:1;stroke-miterlimit:10;" d="M 58.027344 138.902344 L 59.074219 124.382812 "/>
<path style="fill:none;stroke-width:1.2;stroke-linecap:butt;stroke-linejoin:miter;stroke:rgb(100%,0%,0%);stroke-opacity:1;stroke-miterlimit:10;" d="M 59.074219 124.382812 L 60.117188 109.859375 "/>
<path style="fill:none;stroke-width:1.2;stroke-linecap:butt;stroke-linejoin:miter;stroke:rgb(0%,0%,0%);stroke-opacity:1;stroke-miterlimit:10;" d="M 61.445312 139.148438 L 73.5 147.3125 "/>
<path style="fill:none;stroke-width:1.2;stroke-linecap:butt;stroke-linejoin:miter;stroke:rgb(100%,0%,0%);stroke-opacity:1;stroke-miterlimit:10;" d="M 73.5 147.3125 L 85.554688 155.480469 "/>
<path style=" stroke:none;fill-rule:nonzero;fill:rgb(100%,100%,100%);fill-opacity:1;" d="M 58.535156 103.105469 L 68.535156 103.105469 L 68.535156 117.105469 L 58.535156 117.105469 Z M 58.535156 103.105469 "/>
<g style="fill:rgb(100%,0%,0%);fill-opacity:1;">
  <use xlink:href="#glyph0-1" x="58.535156" y="114.244141"/>
</g>
<path style="fill:none;stroke-width:1.2;stroke-linecap:butt;stroke-linejoin:miter;stroke:rgb(100%,0%,0%);stroke-opacity:1;stroke-miterlimit:10;" d="M 85.554688 155.480469 L 98.652344 149.121094 "/>
<path style="fill:none;stroke-width:1.2;stroke-linecap:butt;stroke-linejoin:miter;stroke:rgb(0%,0%,0%);stroke-opacity:1;stroke-miterlimit:10;" d="M 98.652344 149.121094 L 111.75 142.765625 "/>
<path style=" stroke:none;fill-rule:nonzero;fill:rgb(100%,100%,100%);fill-opacity:1;" d="M 80.554688 148.480469 L 90.554688 148.480469 L 90.554688 162.480469 L 80.554688 162.480469 Z M 80.554688 148.480469 "/>
<g style="fill:rgb(100%,0%,0%);fill-opacity:1;">
  <use xlink:href="#glyph0-1" x="80.554688" y="159.619141"/>
</g>
<path style="fill:none;stroke-width:1.2;stroke-linecap:butt;stroke-linejoin:miter;stroke:rgb(0%,0%,0%);stroke-opacity:1;stroke-miterlimit:10;" d="M 111.75 142.765625 L 135.859375 159.097656 "/>
<path style="fill:none;stroke-width:1.2;stroke-linecap:butt;stroke-linejoin:miter;stroke:rgb(0%,0%,0%);stroke-opacity:1;stroke-miterlimit:10;" d="M 135.859375 159.097656 L 148.957031 152.738281 "/>
<path style="fill:none;stroke-width:1.2;stroke-linecap:butt;stroke-linejoin:miter;stroke:rgb(0%,0%,100%);stroke-opacity:1;stroke-miterlimit:10;" d="M 148.957031 152.738281 L 162.054688 146.382812 "/>
<path style="fill:none;stroke-width:1.2;stroke-linecap:butt;stroke-linejoin:miter;stroke:rgb(0%,0%,100%);stroke-opacity:1;stroke-miterlimit:10;" d="M 162.054688 146.382812 L 174.109375 154.546875 "/>
<path style="fill:none;stroke-width:1.2;stroke-linecap:butt;stroke-linejoin:miter;stroke:rgb(0%,0%,0%);stroke-opacity:1;stroke-miterlimit:10;" d="M 174.109375 154.546875 L 186.160156 162.714844 "/>
<path style=" stroke:none;fill-rule:nonzero;fill:rgb(100%,100%,100%);fill-opacity:1;" d="M 153.054688 139.382812 L 171.054688 139.382812 L 171.054688 153.382812 L 153.054688 153.382812 Z M 153.054688 139.382812 "/>
<g style="fill:rgb(0%,0%,100%);fill-opacity:1;">
  <use xlink:href="#glyph0-2" x="153.054688" y="150.521484"/>
  <use xlink:href="#glyph0-3" x="162.03125" y="150.521484"/>
</g>
<path style="fill:none;stroke-width:1.2;stroke-linecap:butt;stroke-linejoin:miter;stroke:rgb(0%,0%,0%);stroke-opacity:1;stroke-miterlimit:10;" d="M 182.746094 162.46875 L 181.699219 176.988281 "/>
<path style="fill:none;stroke-width:1.2;stroke-linecap:butt;stroke-linejoin:miter;stroke:rgb(100%,0%,0%);stroke-opacity:1;stroke-miterlimit:10;" d="M 181.699219 176.988281 L 180.65625 191.511719 "/>
<path style="fill:none;stroke-width:1.2;stroke-linecap:butt;stroke-linejoin:miter;stroke:rgb(0%,0%,0%);stroke-opacity:1;stroke-miterlimit:10;" d="M 189.578125 162.957031 L 188.535156 177.480469 "/>
<path style="fill:none;stroke-width:1.2;stroke-linecap:butt;stroke-linejoin:miter;stroke:rgb(100%,0%,0%);stroke-opacity:1;stroke-miterlimit:10;" d="M 188.535156 177.480469 L 187.492188 192 "/>
<path style="fill:none;stroke-width:1.2;stroke-linecap:butt;stroke-linejoin:miter;stroke:rgb(0%,0%,0%);stroke-opacity:1;stroke-miterlimit:10;" d="M 186.160156 162.714844 L 212.359375 150 "/>
<path style=" stroke:none;fill-rule:nonzero;fill:rgb(100%,100%,100%);fill-opacity:1;" d="M 179.074219 184.757812 L 189.074219 184.757812 L 189.074219 198.757812 L 179.074219 198.757812 Z M 179.074219 184.757812 "/>
<g style="fill:rgb(100%,0%,0%);fill-opacity:1;">
  <use xlink:href="#glyph0-1" x="179.074219" y="195.896484"/>
</g>
<path style="fill:none;stroke-width:1.2;stroke-linecap:butt;stroke-linejoin:miter;stroke:rgb(0%,0%,0%);stroke-opacity:1;stroke-miterlimit:10;" d="M 212.359375 150 L 214.445312 120.957031 "/>
<path style="fill:none;stroke-width:1.2;stroke-linecap:butt;stroke-linejoin:miter;stroke:rgb(0%,0%,0%);stroke-opacity:1;stroke-miterlimit:10;" d="M 219.398438 147.585938 L 221.070312 124.351562 "/>
<path style="fill:none;stroke-width:1.2;stroke-linecap:butt;stroke-linejoin:miter;stroke:rgb(0%,0%,0%);stroke-opacity:1;stroke-miterlimit:10;" d="M 236.464844 166.328125 L 212.359375 150 "/>
<path style="fill:none;stroke-width:1.2;stroke-linecap:butt;stroke-linejoin:miter;stroke:rgb(0%,0%,0%);stroke-opacity:1;stroke-miterlimit:10;" d="M 214.445312 120.957031 L 227.542969 114.601562 "/>
<path style="fill:none;stroke-width:1.2;stroke-linecap:butt;stroke-linejoin:miter;stroke:rgb(0%,0%,100%);stroke-opacity:1;stroke-miterlimit:10;" d="M 227.542969 114.601562 L 240.640625 108.242188 "/>
<path style="fill:none;stroke-width:1.2;stroke-linecap:butt;stroke-linejoin:miter;stroke:rgb(0%,0%,100%);stroke-opacity:1;stroke-miterlimit:10;" d="M 240.640625 108.242188 L 252.695312 116.410156 "/>
<path style="fill:none;stroke-width:1.2;stroke-linecap:butt;stroke-linejoin:miter;stroke:rgb(0%,0%,0%);stroke-opacity:1;stroke-miterlimit:10;" d="M 252.695312 116.410156 L 264.75 124.574219 "/>
<path style="fill:none;stroke-width:1.2;stroke-linecap:butt;stroke-linejoin:miter;stroke:rgb(0%,0%,100%);stroke-opacity:1;stroke-miterlimit:10;" d="M 239.210938 115.550781 L 248.855469 122.082031 "/>
<path style="fill:none;stroke-width:1.2;stroke-linecap:butt;stroke-linejoin:miter;stroke:rgb(0%,0%,0%);stroke-opacity:1;stroke-miterlimit:10;" d="M 248.855469 122.082031 L 258.496094 128.613281 "/>
<path style=" stroke:none;fill-rule:nonzero;fill:rgb(100%,100%,100%);fill-opacity:1;" d="M 236.640625 101.242188 L 245.640625 101.242188 L 245.640625 115.242188 L 236.640625 115.242188 Z M 236.640625 101.242188 "/>
<g style="fill:rgb(0%,0%,100%);fill-opacity:1;">
  <use xlink:href="#glyph0-2" x="236.640625" y="112.380859"/>
</g>
<path style="fill:none;stroke-width:1.2;stroke-linecap:butt;stroke-linejoin:miter;stroke:rgb(0%,0%,0%);stroke-opacity:1;stroke-miterlimit:10;" d="M 264.75 124.574219 L 262.660156 153.617188 "/>
<path style="fill:none;stroke-width:1.2;stroke-linecap:butt;stroke-linejoin:miter;stroke:rgb(0%,0%,0%);stroke-opacity:1;stroke-miterlimit:10;" d="M 262.660156 153.617188 L 236.464844 166.328125 "/>
<path style="fill:none;stroke-width:1.2;stroke-linecap:butt;stroke-linejoin:miter;stroke:rgb(0%,0%,0%);stroke-opacity:1;stroke-miterlimit:10;" d="M 257.050781 148.722656 L 236.09375 158.894531 "/>
</g>
</svg>

<svg xmlns="http://www.w3.org/2000/svg" xmlns:xlink="http://www.w3.org/1999/xlink" width="300pt" height="300pt" viewBox="0 0 300 300"><defs><symbol overflow="visible"><path d="M.594 2.125V-8.47h6V2.126zm.672-.672h4.671V-7.78h-4.67zm0 0"/></symbol><symbol overflow="visible" id="a"><path d="M4.734-7.953c-.867 0-1.554.324-2.062.97-.5.635-.75 1.51-.75 2.624 0 1.094.25 1.965.75 2.61.508.637 1.195.953 2.062.953.852 0 1.532-.316 2.032-.953.507-.645.765-1.516.765-2.61 0-1.113-.257-1.988-.764-2.624-.5-.645-1.18-.97-2.032-.97zm0-.953c1.22 0 2.192.414 2.922 1.234.74.824 1.11 1.93 1.11 3.313 0 1.376-.37 2.477-1.11 3.298C6.926-.24 5.953.17 4.734.17c-1.23 0-2.214-.41-2.953-1.234C1.04-1.882.673-2.984.673-4.36c0-1.382.367-2.488 1.11-3.312.738-.82 1.722-1.234 2.952-1.234zm0 0"/></symbol><symbol overflow="visible" id="b"><path d="M1.172-8.75h1.594l3.89 7.313V-8.75h1.14V0H6.204L2.328-7.313V0H1.172zm0 0"/></symbol><symbol overflow="visible" id="c"><path d="M1.172-8.75H2.36v3.594h4.296V-8.75h1.188V0H6.656v-4.172H2.36V0H1.17zm0 0"/></symbol></defs><g><path fill="#fff" d="M0 0h300v300H0z"/><path d="M35.25 151.863l26.195-12.715M64.863 139.395l1.043-14.52" stroke-width="1.2" stroke="#000" stroke-miterlimit="10" fill="none"/><path d="M65.906 124.875l1.047-14.523" stroke-width="1.2" stroke="#f00" stroke-miterlimit="10" fill="none"/><path d="M58.027 138.902l1.047-14.52" stroke-width="1.2" stroke="#000" stroke-miterlimit="10" fill="none"/><path d="M59.074 124.383l1.043-14.524" stroke-width="1.2" stroke="#f00" stroke-miterlimit="10" fill="none"/><path d="M61.445 139.148l12.055 8.165" stroke-width="1.2" stroke="#000" stroke-miterlimit="10" fill="none"/><path d="M73.5 147.313l12.055 8.167" stroke-width="1.2" stroke="#f00" stroke-miterlimit="10" fill="none"/><path d="M58.535 103.105h10v14h-10zm0 0" fill="#fff"/><use xlink:href="#a" x="58.535" y="114.244" fill="#f00"/><path d="M85.555 155.48l13.097-6.36" stroke-width="1.2" stroke="#f00" stroke-miterlimit="10" fill="none"/><path d="M98.652 149.12l13.098-6.354" stroke-width="1.2" stroke="#000" stroke-miterlimit="10" fill="none"/><path d="M80.555 148.48h10v14h-10zm0 0" fill="#fff"/><use xlink:href="#a" x="80.555" y="159.619" fill="#f00"/><path d="M111.75 142.766l24.11 16.332M135.86 159.098l13.097-6.36" stroke-width="1.2" stroke="#000" stroke-miterlimit="10" fill="none"/><path d="M148.957 152.738l13.098-6.355M162.055 146.383l12.054 8.164" stroke-width="1.2" stroke="#00f" stroke-miterlimit="10" fill="none"/><path d="M174.11 154.547l12.05 8.168" stroke-width="1.2" stroke="#000" stroke-miterlimit="10" fill="none"/><path d="M153.055 139.383h18v14h-18zm0 0" fill="#fff"/><g fill="#00f"><use xlink:href="#b" x="153.055" y="150.521"/><use xlink:href="#c" x="162.031" y="150.521"/></g><path d="M182.746 162.47l-1.047 14.518" stroke-width="1.2" stroke="#000" stroke-miterlimit="10" fill="none"/><path d="M181.7 176.988l-1.044 14.524" stroke-width="1.2" stroke="#f00" stroke-miterlimit="10" fill="none"/><path d="M189.578 162.957l-1.043 14.523" stroke-width="1.2" stroke="#000" stroke-miterlimit="10" fill="none"/><path d="M188.535 177.48L187.492 192" stroke-width="1.2" stroke="#f00" stroke-miterlimit="10" fill="none"/><path d="M186.16 162.715L212.36 150" stroke-width="1.2" stroke="#000" stroke-miterlimit="10" fill="none"/><path d="M179.074 184.758h10v14h-10zm0 0" fill="#fff"/><use xlink:href="#a" x="179.074" y="195.896" fill="#f00"/><path d="M212.36 150l2.085-29.043M219.398 147.586l1.672-23.234M236.465 166.328L212.36 150M214.445 120.957l13.098-6.355" stroke-width="1.2" stroke="#000" stroke-miterlimit="10" fill="none"/><path d="M227.543 114.602l13.098-6.36M240.64 108.242l12.055 8.168" stroke-width="1.2" stroke="#00f" stroke-miterlimit="10" fill="none"/><path d="M252.695 116.41l12.055 8.164" stroke-width="1.2" stroke="#000" stroke-miterlimit="10" fill="none"/><path d="M239.21 115.55l9.645 6.532" stroke-width="1.2" stroke="#00f" stroke-miterlimit="10" fill="none"/><path d="M248.855 122.082l9.64 6.53" stroke-width="1.2" stroke="#000" stroke-miterlimit="10" fill="none"/><path d="M236.64 101.242h9v14h-9zm0 0" fill="#fff"/><use xlink:href="#b" x="236.641" y="112.381" fill="#00f"/><path d="M264.75 124.574l-2.09 29.043M262.66 153.617l-26.195 12.71M257.05 148.723l-20.956 10.172" stroke-width="1.2" stroke="#000" stroke-miterlimit="10" fill="none"/></g></svg>
